godot/editor/icons/Vector2.svg

<svg height="12" viewBox="0 0 16 12" width="16" xmlns="http://www.w3.org/2000/svg"><path d="m12 2v2h1a1 1 0 0 1 1 1 1 1 0 0 1 -1 1 2 2 0 0 0 -1.7324 1 2 2 0 0 0 -.26562 1h-.001953v2h5v-2h-3a3 3 0 0 0 2.5977-1.5 3 3 0 0 0 0-3 3 3 0 0 0 -2.5977-1.5zm-11 2v6h2a3 3 0 0 0 3-3v-3h-2v3a1 1 0 0 1 -1 1v-4zm5 3a3 3 0 0 0 3 3h1v-2h-1a1 1 0 0 1 -1-1 1 1 0 0 1 1-1h1v-2h-1a3 3 0 0 0 -3 3z" fill="#ac73f1"/><path d="m12 2v2h1a1 1 0 0 1 1 1 1 1 0 0 1 -1 1 2 2 0 0 0 -1.7324 1 2 2 0 0 0 -.26562 1h-.001953v2h5v-2h-3a3 3 0 0 0 2.5977-1.5 3 3 0 0 0 0-3 3 3 0 0 0 -2.5977-1.5z" fill="#fff" fill-opacity=".39216"/></svg>

<svg height="12" viewBox="0 0 16 12" width="16" xmlns="http://www.w3.org/2000/svg"><path d="M12 2v2h1a1 1 0 0 1 0 2 2 2 0 0 0-2 2v2h5V8h-3a3 3 0 0 0 0-6zM1 4v6h2a3 3 0 0 0 3-3V4H4v3a1 1 0 0 1-1 1V4zm9 6V8H9a1 1 0 0 1 0-2h1V4H9a3 3 0 0 0 0 6z" fill="#ac73f1"/><path d="M12 2v2h1a1 1 0 0 1 0 2 2 2 0 0 0-2 2v2h5V8h-3a3 3 0 0 0 0-6z" fill="#fff" fill-opacity=".4"/></svg>
